icons/svg/map.svg

<svg width="24" height="24" viewBox="0 0 24 24" fill="none" xmlns="http://www.w3.org/2000/svg">
<path d="M8.49566 4.43889L4.24711 6.91077C3.93934 7.08984 3.75 7.41905 3.75 7.77512V18.2612C3.75 19.0325 4.58623 19.5135 5.25289 19.1256L8.49566 17.2389C8.96196 16.9676 9.53804 16.9676 10.0043 17.2389L13.9957 19.5611C14.462 19.8324 15.038 19.8324 15.5043 19.5611L19.7529 17.0892C20.0607 16.9102 20.25 16.5809 20.25 16.2249V5.73876C20.25 4.96747 19.4138 4.48654 18.7471 4.87441L15.5043 6.76111C15.038 7.03241 14.462 7.03241 13.9957 6.76111L10.0043 4.43889C9.53804 4.16759 8.96196 4.16759 8.49566 4.43889Z" stroke="currentColor" stroke-width="1.5" stroke-linejoin="round"/>
<path d="M9.25 4.75V16.55M14.75 7.45V19.25" stroke="currentColor" stroke-width="1.5" stroke-linejoin="round"/>
</svg>

<svg xmlns="http://www.w3.org/2000/svg" width="24" height="24" fill="none" viewBox="0 0 24 24"><path stroke="currentColor" stroke-linejoin="round" stroke-width="1.5" d="M8.496 4.439 4.247 6.91a1 1 0 0 0-.497.864V18.26a1 1 0 0 0 1.503.865l3.243-1.887a1.5 1.5 0 0 1 1.508 0l3.992 2.322a1.5 1.5 0 0 0 1.508 0l4.249-2.472a1 1 0 0 0 .497-.864V5.739a1 1 0 0 0-1.503-.865l-3.243 1.887a1.5 1.5 0 0 1-1.508 0L10.004 4.44a1.5 1.5 0 0 0-1.508 0Zm.754.311v11.8m5.5-9.1v11.8"/></svg>
